X:1
T:The Twa Corbies (5)
M:6/8
L:1/8
K:G
 G2 GA-G A|B-d BB-A G| G2 E E2 D|D-E-F G2 D| G2 GA-G A| B2 dB-A G|\
 G2 E E2 D|D-E-F G2||
